icons/location.svg

<?xml version="1.0" standalone="no"?><!-- Generator: Gravit.io --><svg xmlns="http://www.w3.org/2000/svg" xmlns:xlink="http://www.w3.org/1999/xlink" width="96" height="96"><path d=" M 66.92476355752598 76.92990381056767 L 75.92476355752598 16.429903810567662 L 24.824763557525976 49.52990381056766 L 45.724763557525975 51.829903810567664 C 49.42476355752598 52.22990381056766 52.724763557525975 54.329903810567664 54.724763557525975 57.52990381056766 L 66.92476355752598 76.92990381056767 Z  M 76.12476355752598 6.829903810567663 L 14.624763557525975 46.52990381056766 C 12.624763557525975 47.52990381056766 11.424763557525974 49.52990381056766 11.324763557525975 51.72990381056766 C 11.624763557525975 54.62990381056766 14.224763557525975 56.829903810567664 17.224763557525975 56.72990381056766 L 44.824763557525976 59.72990381056766 C 46.124763557525974 59.929903810567666 47.224763557525975 60.62990381056766 47.92476355752598 61.72990381056766 L 63.52476355752597 86.72990381056766 C 64.52476355752597 88.72990381056766 66.52476355752597 90.02990381056766 68.82476355752598 90.12990381056767 C 71.62476355752598 89.82990381056766 73.82476355752597 87.32990381056766 73.82476355752597 84.42990381056767 L 84.62476355752598 12.629903810567663 L 84.62476355752598 11.929903810567662 C 84.82476355752597 10.529903810567664 84.42476355752598 9.029903810567664 83.52476355752597 7.929903810567663 C 82.62476355752598 6.829903810567663 81.32476355752597 6.029903810567663 79.92476355752598 5.929903810567663 C 79.32476355752597 5.829903810567663 78.62476355752598 5.829903810567663 78.02476355752597 6.129903810567663 L 76.12476355752598 6.829903810567663 Z " fill-rule="evenodd" fill="#454545" stroke="none"/><mask id="_mask_FaP91ahQX2ncjwJjoa9vS6PkCwIoKYBB"><path d=" M 66.92476355752598 76.92990381056767 L 75.92476355752598 16.429903810567662 L 24.824763557525976 49.52990381056766 L 45.724763557525975 51.829903810567664 C 49.42476355752598 52.22990381056766 52.724763557525975 54.329903810567664 54.724763557525975 57.52990381056766 L 66.92476355752598 76.92990381056767 Z  M 76.12476355752598 6.829903810567663 L 14.624763557525975 46.52990381056766 C 12.624763557525975 47.52990381056766 11.424763557525974 49.52990381056766 11.324763557525975 51.72990381056766 C 11.624763557525975 54.62990381056766 14.224763557525975 56.829903810567664 17.224763557525975 56.72990381056766 L 44.824763557525976 59.72990381056766 C 46.124763557525974 59.929903810567666 47.224763557525975 60.62990381056766 47.92476355752598 61.72990381056766 L 63.52476355752597 86.72990381056766 C 64.52476355752597 88.72990381056766 66.52476355752597 90.02990381056766 68.82476355752598 90.12990381056767 C 71.62476355752598 89.82990381056766 73.82476355752597 87.32990381056766 73.82476355752597 84.42990381056767 L 84.62476355752598 12.629903810567663 L 84.62476355752598 11.929903810567662 C 84.82476355752597 10.529903810567664 84.42476355752598 9.029903810567664 83.52476355752597 7.929903810567663 C 82.62476355752598 6.829903810567663 81.32476355752597 6.029903810567663 79.92476355752598 5.929903810567663 C 79.32476355752597 5.829903810567663 78.62476355752598 5.829903810567663 78.02476355752597 6.129903810567663 L 76.12476355752598 6.829903810567663 Z " fill-rule="evenodd" fill="white" stroke="none"/></mask><path d=" M 66.92476355752598 76.92990381056767 L 75.92476355752598 16.429903810567662 L 24.824763557525976 49.52990381056766 L 45.724763557525975 51.829903810567664 C 49.42476355752598 52.22990381056766 52.724763557525975 54.329903810567664 54.724763557525975 57.52990381056766 L 66.92476355752598 76.92990381056767 Z  M 76.12476355752598 6.829903810567663 L 14.624763557525975 46.52990381056766 C 12.624763557525975 47.52990381056766 11.424763557525974 49.52990381056766 11.324763557525975 51.72990381056766 C 11.624763557525975 54.62990381056766 14.224763557525975 56.829903810567664 17.224763557525975 56.72990381056766 L 44.824763557525976 59.72990381056766 C 46.124763557525974 59.929903810567666 47.224763557525975 60.62990381056766 47.92476355752598 61.72990381056766 L 63.52476355752597 86.72990381056766 C 64.52476355752597 88.72990381056766 66.52476355752597 90.02990381056766 68.82476355752598 90.12990381056767 C 71.62476355752598 89.82990381056766 73.82476355752597 87.32990381056766 73.82476355752597 84.42990381056767 L 84.62476355752598 12.629903810567663 L 84.62476355752598 11.929903810567662 C 84.82476355752597 10.529903810567664 84.42476355752598 9.029903810567664 83.52476355752597 7.929903810567663 C 82.62476355752598 6.829903810567663 81.32476355752597 6.029903810567663 79.92476355752598 5.929903810567663 C 79.32476355752597 5.829903810567663 78.62476355752598 5.829903810567663 78.02476355752597 6.129903810567663 L 76.12476355752598 6.829903810567663 Z " fill-rule="evenodd" fill="none" stroke="none" stroke-width="16" mask="url(#_mask_FaP91ahQX2ncjwJjoa9vS6PkCwIoKYBB)"/></svg>

<svg xmlns="http://www.w3.org/2000/svg" width="96" height="96"><path d="M66.925 76.93l9-60.5-51.1 33.1 20.9 2.3c3.7.4 7 2.5 9 5.7l12.2 19.4zm9.2-70.1l-61.5 39.7c-2 1-3.2 3-3.3 5.2.3 2.9 2.9 5.1 5.9 5l27.6 3c1.3.2 2.4.9 3.1 2l15.6 25c1 2 3 3.3 5.3 3.4 2.8-.3 5-2.8 5-5.7l10.8-71.8v-.7c.2-1.4-.2-2.9-1.1-4-.9-1.1-2.2-1.9-3.6-2-.6-.1-1.3-.1-1.9.2l-1.9.7z" fill-rule="evenodd" fill="#454545"/></svg>
